X:335
T:Langour of Love, The
B:Hamilton's Universal Tunebook (Glasgow 1844)
Z:Nigel Gatherer
O:Scotland
L:1/8
M:4/4
K:D
D2 FA d4|c2 d2 B4|A2 Bc d3 e|d3 c B2 Az|
F3 G A2 g2|f3 e d2 zD|F3 G A3 F|G2 F2 E2 D2:|
f3 e d3 f|c2 d2 B4|f3 e d3 f|d3 c B2 Az|
F3 G A2 ag|f3 e d2 zD|F3 G A3 F|G2 F2 E2 D2|
f3 e d3 f|c2 d2 B4|f3 e d3 f|d2 cd/e/ d2 Dz|
F3 G A2 g2|(3fga (3gfe d4|d3 B A3 F|G2 F2 E2 D2|]
